packages/icons/src/exclamation-triangle.svg

<svg width="15" height="15" viewBox="0 0 15 15" fill="none" xmlns="http://www.w3.org/2000/svg">
  <path
    fill-rule="evenodd"
    clip-rule="evenodd"
    d="M8.4449 0.608765C8.0183 -0.107015 6.9817 -0.107015 6.55509 0.608766L0.161178 11.3368C-0.275824 12.07 0.252503 13 1.10608 13H13.8939C14.7475 13 15.2758 12.07 14.8388 11.3368L8.4449 0.608765ZM7.4141 1.12073C7.45288 1.05566 7.54712 1.05566 7.5859 1.12073L13.9798 11.8488C14.0196 11.9154 13.9715 12 13.8939 12H1.10608C1.02849 12 0.980454 11.9154 1.02018 11.8488L7.4141 1.12073ZM6.8269 4.48611C6.81221 4.10423 7.11783 3.78663 7.5 3.78663C7.88217 3.78663 8.18778 4.10423 8.1731 4.48612L8.01921 8.48701C8.00848 8.766 7.7792 8.98664 7.5 8.98664C7.2208 8.98664 6.99151 8.766 6.98078 8.48701L6.8269 4.48611ZM8.24989 10.476C8.24989 10.8902 7.9141 11.226 7.49989 11.226C7.08567 11.226 6.74989 10.8902 6.74989 10.476C6.74989 10.0618 7.08567 9.72599 7.49989 9.72599C7.9141 9.72599 8.24989 10.0618 8.24989 10.476Z"
    fill="currentColor"
  />
</svg>

<svg xmlns="http://www.w3.org/2000/svg" width="15" height="15" fill="none"><path fill="currentColor" fill-rule="evenodd" d="M8.445.609a1.1 1.1 0 0 0-1.89 0L.161 11.337A1.1 1.1 0 0 0 1.106 13h12.788a1.1 1.1 0 0 0 .945-1.663zm-1.03.512a.1.1 0 0 1 .17 0l6.395 10.728a.1.1 0 0 1-.086.151H1.106a.1.1 0 0 1-.086-.151zm-.588 3.365a.674.674 0 1 1 1.346 0L8.02 8.487a.52.52 0 0 1-1.038 0zm1.423 5.99a.75.75 0 1 1-1.5 0 .75.75 0 0 1 1.5 0" clip-rule="evenodd"/></svg>
